X: 6
T: Carolan's Welcome
R: waltz
M: 3/4
L: 1/8
K: Bmin
dc |: B2 de f2 | B2 de f2 | ef ed cB | (3ABc A2 F2 |
d3c B2 | e3d c2 | df F2 A2 | B4 dc |
B2 de f2 | B2 de f2 | ef ed cB | (3ABc A2 F2 |
a3g f2 | b3a fe | df ed cd | [1 B4 dc :| [2 B4 B2 |
|: F2 Bc d2 | F2 Bc d2 | dc BA Bc | d2 F2 F2 |
g2 bg fe | f2 af ed | e2 f2 a2 | b6 |
ba fa b2 | afef a2 | fe de fd | e2 c2 (3ABc |
d3c B2 | e3d c2 | df F2 A2 | [1 B4 B2 :| [2 B6 |]


Tune 1055	Setting 14281

